X: 1
T:New Coldstream March,(Melody). WCl.65
M:4/4
L:1/4
Q:100
S:William Clarke MS,Lincoln,1770.
R:March
O:Lincoln
A:England
P:2
Z:vmp.Barry Callaghan
K:D
d2f2 | agfe | d2A2 | BB ({B/4c/4}d)c/2B/2 |\
A>BAA | BB {B/4c/4}dc/2B/2 | A>BAd | c>edf |\
e>gff | edcd | e>fea | a2~^g2 | a2z/4A/4B/4c/4 :|
|: dddf/e/ | dBGg/2f/2 | eeea | g~fez/4A/4B/4c/4 |
d2f2 | agfe | d2A2 | BB ({B/4c/4}d)c/2B/2 |
A>BAA | BB ({B/4c/4}d)c/2B/2 | A>BAA | gg ({g/4a/4}b)a/2g/2 |\
fgad' | f2~e2 |1 d3z/4A/4B/4c/4 :|2 d4 ||
